X:129
T: Der Spielmannssohn
N: Q1062C
O: Mitteleuropa, Deutschland (BRD) , Rheinland, Bergisches Land
N: Verzierungen (Vorschlaege) ; Melodievergleich zu Q0062, anderes Lied.
R: Fenstergang - Lied
M: 6/8
L: 1/16
K: F
CC | C2F2FFF2E2F2 | G3_AG2F4
F2 | G4c2B2_A2G2 | F4_A2G4
F2 | G4c2c2B2c2 | _A2G2F2_E4
C2 | F4G2_A2G2F2 | _A2G2F2E6 | F4z6

@@@ Tune index: 1005
